Arcticons/scalable/apps/notificationlog.svg

<svg viewBox="0 0 48 48" xmlns="http://www.w3.org/2000/svg">
 <defs>
  <style>.a{fill:none;stroke:#fff;stroke-linecap:round;stroke-linejoin:round;}</style>
 </defs>
 <path class="a" d="M37.2759,32.6795V21.4715A13.27,13.27,0,0,0,27.08,8.5692V7.584a3.1017,3.1017,0,0,0-6.2033,0v.9966A13.27,13.27,0,0,0,10.7241,21.4715v11.208L6.5186,36.8851v1.9423H41.4814V36.885Z"/>
 <path class="a" d="m19.3266 38.8274a4.651 4.651 0 1 0 9.3019 0.0431v-0.0431"/>
 <path class="a" d="m22.1283 28.3a2.437 2.437 0 0 1-2.43-2.43v-1.5794a2.4371 2.4371 0 0 1 2.43-2.43 2.4371 2.4371 0 0 1 2.43 2.43v1.5794a2.4371 2.4371 0 0 1-2.43 2.43z"/>
 <path class="a" d="m16.0827 18.58v8.505a1.1478 1.1478 0 0 0 1.2149 1.215h0.3645"/>
 <path class="a" d="m31.9173 21.8607v7.29a2.437 2.437 0 0 1-2.43 2.43 2.0389 2.0389 0 0 1-1.7009-0.7289"/>
 <path class="a" d="m29.4874 21.8607a2.437 2.437 0 0 1 2.43 2.43v1.5793a2.437 2.437 0 0 1-2.43 2.43 2.437 2.437 0 0 1-2.43-2.43v-1.5794a2.4371 2.4371 0 0 1 2.43-2.4299z"/>
</svg>

<svg xmlns="http://www.w3.org/2000/svg" viewBox="0 0 48 48"><defs><style>.a{fill:none;stroke:#fff;stroke-linecap:round;stroke-linejoin:round;}</style></defs><path class="a" d="M37.2759,32.6795V21.4715A13.27,13.27,0,0,0,27.08,8.5692V7.584a3.1017,3.1017,0,0,0-6.2033,0v.9966A13.27,13.27,0,0,0,10.7241,21.4715v11.208L6.5186,36.8851v1.9423H41.4814V36.885Z"/><path class="a" d="M19.3266,38.8274a4.651,4.651,0,1,0,9.3019.0431c0-.0143,0-.0287,0-.0431"/><path class="a" d="M22.1283,28.3h0a2.437,2.437,0,0,1-2.43-2.43V24.2906a2.4371,2.4371,0,0,1,2.43-2.43h0a2.4371,2.4371,0,0,1,2.43,2.43V25.87A2.4371,2.4371,0,0,1,22.1283,28.3Z"/><path class="a" d="M16.0827,18.58V27.085A1.1478,1.1478,0,0,0,17.2976,28.3h.3645"/><path class="a" d="M31.9173,21.8607v7.29a2.437,2.437,0,0,1-2.43,2.43h0a2.0389,2.0389,0,0,1-1.7009-.7289"/><path class="a" d="M29.4874,21.8607h0a2.437,2.437,0,0,1,2.43,2.43V25.87a2.437,2.437,0,0,1-2.43,2.43h0a2.437,2.437,0,0,1-2.43-2.43V24.2906A2.4371,2.4371,0,0,1,29.4874,21.8607Z"/></svg>
